icons/speech-bubble-32.svg

<svg xmlns="http://www.w3.org/2000/svg" viewBox="0 0 32 32"><title>speech-bubble-32</title><g id="icons"><path d="M24,12H8V11H24Zm-4,3H8v1H20Zm6-9H6A3.00328,3.00328,0,0,0,3,9V19a3.00328,3.00328,0,0,0,3,3H7v5.47168L14.66016,22H19V21H14.33984L8,25.52832V21H6a2.00229,2.00229,0,0,1-2-2V9A2.00229,2.00229,0,0,1,6,7H26a2.00229,2.00229,0,0,1,2,2V19a2.00042,2.00042,0,0,1-2,1.99994v1A3.00068,3.00068,0,0,0,29,19V9A3.00328,3.00328,0,0,0,26,6ZM23,20V19H22v5H17v.999h5V30h1V24.999h5V24H23Z"/></g></svg>

<svg xmlns="http://www.w3.org/2000/svg" viewBox="0 0 32 32"><path d="M24 12H8v-1h16zm-4 3H8v1h12zm6-9H6a3.003 3.003 0 00-3 3v10a3.003 3.003 0 003 3h1v5.472L14.66 22H19v-1h-4.66L8 25.528V21H6a2.002 2.002 0 01-2-2V9a2.002 2.002 0 012-2h20a2.002 2.002 0 012 2v10a2 2 0 01-2 2v1a3 3 0 003-3V9a3.003 3.003 0 00-3-3zm-3 14v-1h-1v5h-5v.999h5V30h1v-5.001h5V24h-5z"/></svg>
